icons/toc.svg

<?xml version="1.0" encoding="UTF-8" standalone="no"?>
<svg
   version="1.1"
   viewBox="0 0 32 32"
   id="svg8"
   sodipodi:docname="toc.svg"
   inkscape:version="1.4 (e7c3feb1, 2024-10-09)"
   width="32"
   height="32"
   xmlns:inkscape="http://www.inkscape.org/namespaces/inkscape"
   xmlns:sodipodi="http://sodipodi.sourceforge.net/DTD/sodipodi-0.dtd"
   xmlns="http://www.w3.org/2000/svg"
   xmlns:svg="http://www.w3.org/2000/svg">
  <defs
     id="defs8" />
  <sodipodi:namedview
     id="namedview8"
     pagecolor="#ffffff"
     bordercolor="#000000"
     borderopacity="0.25"
     inkscape:showpageshadow="2"
     inkscape:pageopacity="0.0"
     inkscape:pagecheckerboard="0"
     inkscape:deskcolor="#d1d1d1"
     showgrid="true"
     inkscape:zoom="18.892556"
     inkscape:cx="15.323496"
     inkscape:cy="8.1513587"
     inkscape:window-width="1472"
     inkscape:window-height="895"
     inkscape:window-x="202"
     inkscape:window-y="1141"
     inkscape:window-maximized="0"
     inkscape:current-layer="svg8">
    <inkscape:grid
       id="grid8"
       units="px"
       originx="0"
       originy="0"
       spacingx="1"
       spacingy="1"
       empcolor="#0099e5"
       empopacity="0.30196078"
       color="#0099e5"
       opacity="0.14901961"
       empspacing="2"
       enabled="true"
       visible="true" />
  </sodipodi:namedview>
  <g
     fill="none"
     stroke="#00274c"
     stroke-linecap="round"
     stroke-linejoin="round"
     id="g8"
     style="stroke:none;stroke-opacity:0.99215686;fill:#2196f3;fill-opacity:0.99215698"
     transform="matrix(0.9999453,0,0,1.000002,1.378056e-4,-3.2366393e-5)">
    <g
       id="g2"
       style="fill:#2196f3;stroke:none;fill-opacity:0.99215698;stroke-opacity:0.99215686">
      <path
         style="fill:#2196f3;fill-opacity:0.99215698;stroke:none;stroke-width:2.001;stroke-opacity:0.99215686"
         d="M 3.0019834,2.0000284 A 1.0016439,0.99862603 0 0 0 1.9999717,2.999021 V 9.000782 A 1.0016439,0.99862603 0 0 0 3.0019834,9.9997747 H 9.0023115 A 1.0016439,0.99862603 0 0 0 10.000409,9.000782 V 2.999021 A 1.0016439,0.99862603 0 0 0 9.0023115,2.0000284 Z M 4.0039951,3.9980137 H 8.0002999 V 8.0056915 H 4.0039951 Z"
         id="rect1" />
      <path
         style="fill:#2196f3;fill-opacity:0.99215698;stroke:none;stroke-width:0.999973;stroke-opacity:0.99215686"
         d="m 13.000465,2 a 0.99997121,1.000025 0 0 0 -0.999946,1 0.99997121,1.000025 0 0 0 0.999946,1 H 29.001557 A 0.99997121,1.000025 0 0 0 30.001504,3 0.99997121,1.000025 0 0 0 29.001557,2 Z"
         id="path3" />
      <path
         style="fill:#2196f3;fill-opacity:0.99215698;stroke:none;stroke-width:0.999966;stroke-opacity:0.99215686"
         d="m 13.000452,6 a 0.99999764,1.000065 0 0 0 -0.999933,1 0.99999764,1.000065 0 0 0 0.999933,1 h 14.00101 A 0.99999764,1.000065 0 0 0 28.001394,7 0.99999764,1.000065 0 0 0 27.001462,6 Z"
         id="path4" />
    </g>
    <g
       id="g2-2"
       style="fill:#2196f3;stroke:none;fill-opacity:0.99215698;stroke-opacity:0.99215686"
       transform="translate(0.00147498,9.9999996)">
      <path
         style="fill:#2196f3;fill-opacity:0.99215698;stroke:none;stroke-opacity:0.99215686"
         d="m 2.9980469,2 a 1.000125,1.000125 0 0 0 -1,1 v 6 a 1.000125,1.000125 0 0 0 1,1 h 6 a 1.000125,1.000125 0 0 0 1,-1 V 3 a 1.000125,1.000125 0 0 0 -1,-1 z m 1,2 h 4 v 4 h -4 z"
         id="rect1-2" />
      <path
         style="fill:#2196f3;fill-opacity:0.99215698;stroke:none;stroke-width:1.00003;stroke-opacity:0.99215686"
         d="m 12.999099,2 a 1.0000797,1.000025 0 0 0 -1.000055,1 1.0000797,1.000025 0 0 0 1.000055,1 H 28.999974 A 1.0000797,1.000025 0 0 0 30.000029,3 1.0000797,1.000025 0 0 0 28.999974,2 Z"
         id="path3-7" />
      <path
         style="fill:#2196f3;fill-opacity:0.99215698;stroke:none;stroke-width:1.00003;stroke-opacity:0.99215686"
         d="m 12.999099,6 a 1.0001197,1.000065 0 0 0 -1.000055,1 1.0001197,1.000065 0 0 0 1.000055,1 H 26.999865 A 1.0001197,1.000065 0 0 0 27.999919,7 1.0001197,1.000065 0 0 0 26.999865,6 Z"
         id="path4-1" />
    </g>
    <g
       id="g2-5"
       style="fill:#2196f3;stroke:none;fill-opacity:0.99215698;stroke-opacity:0.99215686"
       transform="translate(0.00147498,20)">
      <path
         style="fill:#2196f3;fill-opacity:0.99215698;stroke:none;stroke-opacity:0.99215686"
         d="M 1.4941406,0.98632813 A 0.49981648,0.49981648 0 0 0 0.99414063,1.4863281 v 3.0039063 a 0.49981648,0.49981648 0 0 0 0.49999997,0.5 h 2.9941406 a 0.49981648,0.49981648 0 0 0 0.4980469,-0.5 V 1.4863281 A 0.49981648,0.49981648 0 0 0 4.4882812,0.98632813 Z m 0.5,0.99999997 H 3.9882813 V 3.9921875 H 1.9941406 Z"
         id="rect1-21"
         transform="matrix(2.003886,0,0,1.9979854,0.00638434,0.0284608)" />
      <path
         style="fill:#2196f3;fill-opacity:0.99215698;stroke:none;stroke-opacity:0.99215686"
         d="m 13,2 a 1,1 0 0 0 -1,1 1,1 0 0 0 1,1 H 29 A 1,1 0 0 0 30,3 1,1 0 0 0 29,2 Z"
         id="path3-1" />
      <path
         style="fill:#2196f3;fill-opacity:0.99215698;stroke:none;stroke-opacity:0.99215686"
         d="m 13,6 a 1.0000401,1.0000401 0 0 0 -1,1 1.0000401,1.0000401 0 0 0 1,1 H 27 A 1.0000401,1.0000401 0 0 0 28,7 1.0000401,1.0000401 0 0 0 27,6 Z"
         id="path4-0" />
    </g>
    <g
       id="g6"
       style="fill:#2196f3;stroke:none;fill-opacity:0.99215698;stroke-opacity:0.99215686"
       transform="translate(0.00147498,20)">
      <path
         style="fill:#2196f3;fill-opacity:0.99215698;stroke:none;stroke-opacity:0.99215686"
         d="m 2.9980469,2 a 1.00013,1.00013 0 0 0 -1,1 v 6 a 1.00013,1.00013 0 0 0 1,1 h 6 a 1.00013,1.00013 0 0 0 1,-1 V 3 a 1.00013,1.00013 0 0 0 -1,-1 z m 1,2 h 4 v 4 h -4 z"
         id="rect3" />
      <path
         style="fill:#2196f3;fill-opacity:0.99215698;stroke:none;stroke-width:1.00003;stroke-opacity:0.99215686"
         d="m 12.999099,2 a 1.0000797,1.000025 0 0 0 -1.000055,1 1.0000797,1.000025 0 0 0 1.000055,1 H 28.999974 A 1.0000797,1.000025 0 0 0 30.000029,3 1.0000797,1.000025 0 0 0 28.999974,2 Z"
         id="path5" />
      <path
         style="fill:#2196f3;fill-opacity:0.99215698;stroke:none;stroke-width:1.00003;stroke-opacity:0.99215686"
         d="m 12.999098,6 a 1.0001197,1.000065 0 0 0 -1.000054,1 1.0001197,1.000065 0 0 0 1.000054,1 H 26.999864 A 1.0001197,1.000065 0 0 0 27.999919,7 1.0001197,1.000065 0 0 0 26.999864,6 Z"
         id="path6" />
    </g>
  </g>
</svg>

<svg version="1.1" viewBox="0 0 32 32" xmlns="http://www.w3.org/2000/svg">
    <g transform="matrix(.99995 0 0 1 .00013781 -3.2366e-5)" fill="#2196f3" fill-opacity=".99216" stroke-linecap="round" stroke-linejoin="round">
        <path d="m3.002 2a1.0016 0.99863 0 0 0-1.002 0.99899v6.0018a1.0016 0.99863 0 0 0 1.002 0.99899h6.0003a1.0016 0.99863 0 0 0 0.9981-0.99899v-6.0018a1.0016 0.99863 0 0 0-0.9981-0.99899zm1.002 1.998h3.9963v4.0077h-3.9963z"/>
        <path d="m13 2a0.99997 1 0 0 0-0.99995 1 0.99997 1 0 0 0 0.99995 1h16.001a0.99997 1 0 0 0 0.99995-1 0.99997 1 0 0 0-0.99995-1z"/>
        <path d="m13 6a1 1.0001 0 0 0-0.99993 1 1 1.0001 0 0 0 0.99993 1h14.001a1 1.0001 0 0 0 0.99993-1 1 1.0001 0 0 0-0.99993-1z"/>
        <g transform="translate(.001475 10)">
            <path d="m2.998 2a1.0001 1.0001 0 0 0-1 1v6a1.0001 1.0001 0 0 0 1 1h6a1.0001 1.0001 0 0 0 1-1v-6a1.0001 1.0001 0 0 0-1-1zm1 2h4v4h-4z"/>
            <path d="m12.999 2a1.0001 1 0 0 0-1.0001 1 1.0001 1 0 0 0 1.0001 1h16.001a1.0001 1 0 0 0 1.0001-1 1.0001 1 0 0 0-1.0001-1z"/>
            <path d="m12.999 6a1.0001 1.0001 0 0 0-1.0001 1 1.0001 1.0001 0 0 0 1.0001 1h14.001a1.0001 1.0001 0 0 0 1.0001-1 1.0001 1.0001 0 0 0-1.0001-1z"/>
        </g>
        <g transform="translate(.001475 20)">
            <path transform="matrix(2.0039 0 0 1.998 .0063843 .028461)" d="m1.4941 0.98633a0.49982 0.49982 0 0 0-0.5 0.5v3.0039a0.49982 0.49982 0 0 0 0.5 0.5h2.9941a0.49982 0.49982 0 0 0 0.49805-0.5v-3.0039a0.49982 0.49982 0 0 0-0.49805-0.5zm0.5 1h1.9941v2.0059h-1.9941z"/>
            <path d="m13 2a1 1 0 0 0-1 1 1 1 0 0 0 1 1h16a1 1 0 0 0 1-1 1 1 0 0 0-1-1z"/>
            <path d="m13 6a1 1 0 0 0-1 1 1 1 0 0 0 1 1h14a1 1 0 0 0 1-1 1 1 0 0 0-1-1z"/>
            <path d="m2.998 2a1.0001 1.0001 0 0 0-1 1v6a1.0001 1.0001 0 0 0 1 1h6a1.0001 1.0001 0 0 0 1-1v-6a1.0001 1.0001 0 0 0-1-1zm1 2h4v4h-4z"/>
            <path d="m12.999 2a1.0001 1 0 0 0-1.0001 1 1.0001 1 0 0 0 1.0001 1h16.001a1.0001 1 0 0 0 1.0001-1 1.0001 1 0 0 0-1.0001-1z"/>
            <path d="m12.999 6a1.0001 1.0001 0 0 0-1.0001 1 1.0001 1.0001 0 0 0 1.0001 1h14.001a1.0001 1.0001 0 0 0 1.0001-1 1.0001 1.0001 0 0 0-1.0001-1z"/>
        </g>
    </g>
</svg>
